Newaita/actions/16/media-playlist-normal.svg

<svg height="16" viewBox="0 0 16 16" width="16" xmlns="http://www.w3.org/2000/svg"><g fill="#424242"><path d="m4.300781 1.449219-2.316406 3.304687h1.652344v9.59375c0 .183594.148437.332032.332031.332032h.660156c.183594 0 .332032-.148438.332032-.332032v-9.59375h1.652343zm0 0"/><path d="m11.578125 1.449219-2.316406 3.304687h1.652343v9.59375c0 .183594.148438.332032.332032.332032h.660156c.183594 0 .332031-.148438.332031-.332032v-9.59375h1.652344zm0 0"/></g></svg>

<svg xmlns="http://www.w3.org/2000/svg" xmlns:xlink="http://www.w3.org/1999/xlink" width="16px" height="16px" viewBox="0 0 16 16" version="1.1">
<g id="surface1">
     <defs>
  <style id="current-color-scheme" type="text/css">
   .ColorScheme-Text { color:#424242; } .ColorScheme-Highlight { color:#eeeeee; }
  </style>
 </defs>
<path style="fill:currentColor" class="ColorScheme-Text" d="M 4.300781 1.449219 L 1.984375 4.753906 L 3.636719 4.753906 L 3.636719 14.347656 C 3.636719 14.53125 3.785156 14.679688 3.96875 14.679688 L 4.628906 14.679688 C 4.8125 14.679688 4.960938 14.53125 4.960938 14.347656 L 4.960938 4.753906 L 6.613281 4.753906 Z M 4.300781 1.449219 "/>
     <defs>
  <style id="current-color-scheme" type="text/css">
   .ColorScheme-Text { color:#424242; } .ColorScheme-Highlight { color:#eeeeee; }
  </style>
 </defs>
<path style="fill:currentColor" class="ColorScheme-Text" d="M 11.578125 1.449219 L 9.261719 4.753906 L 10.914062 4.753906 L 10.914062 14.347656 C 10.914062 14.53125 11.0625 14.679688 11.246094 14.679688 L 11.90625 14.679688 C 12.089844 14.679688 12.238281 14.53125 12.238281 14.347656 L 12.238281 4.753906 L 13.890625 4.753906 Z M 11.578125 1.449219 "/>
</g>
</svg>
